X: 2
T: Itchy Fingers
R: reel
M: 4/4
L: 1/8
K: Dmaj
|: FG|A2AB ADFA|BDGB A2FG|A2AB ADFA|FDGF E2FG|
A2AB ADFA|BDGB A2FA|GFFE EBAE|F2D2 D2:||
FA|d2Dd FdDd|BdGd A2FA| d2Dd FdDd|FDGF E2FA|
d2Dd FdDd| BdGd A2FA|GFFE EBAE|F2D2 D2|
FA|d2Dd FdDd|BdGd A2FA| d2Dd FdDd|FDGF E2FG|
A2AB ADFA| GGdB A2FA|GFFE EBAE|F2D2 D2||


Tune 3931	Setting 3931

